X: 1
T: Hot Ashpelt, The
M: 4/4
L: 1/8
R: hornpipe
K: Gmaj
cB |: AcBc AGEG | cd (3edc d2 (3efg |1 aged cABA |
GDGA BG cB :|2 aged cABG | A2AG A2 (3efg ||
|: aged cdef | gfga g2 (3efg | aged cABA | GDGA BGcB |
AcBc AGEG | cd (3edc d2 (3efg | aged cABG | A2 AG A2 z2:|
